svgs/light/message-captions.svg

<svg xmlns="http://www.w3.org/2000/svg" viewBox="0 0 512 512"><!-- Font Awesome Pro 6.0.0-alpha2 by @fontawesome - https://fontawesome.com License - https://fontawesome.com/license (Commercial License) --><path d="M448 0H64C28.75 0 0 28.75 0 64V352.002C0 387.252 28.75 416.002 64 416.002H160V500.002C160 509.84 171.025 515.479 179.125 509.627L304 416.002H448C483.25 416.002 512 387.252 512 352.002V64C512 28.75 483.25 0 448 0ZM480 352.002C480 369.602 465.6 384.002 448 384.002H303.924C296.996 384.002 290.254 386.25 284.713 390.408L192 460.002V400.002C192 391.164 184.836 384.002 176 384.002H64C46.4 384.002 32 369.602 32 352.002V64C32 46.4 46.4 32 64 32H448C465.6 32 480 46.4 480 64V352.002ZM432 224H272C263.156 224 256 231.156 256 240S263.156 256 272 256H432C440.844 256 448 248.844 448 240S440.844 224 432 224ZM224 240C224 231.156 216.844 224 208 224H80C71.156 224 64 231.156 64 240S71.156 256 80 256H208C216.844 256 224 248.844 224 240ZM144 288H112C103.156 288 96 295.156 96 304S103.156 320 112 320H144C152.844 320 160 312.844 160 304S152.844 288 144 288ZM400 288H368C359.156 288 352 295.156 352 304S359.156 320 368 320H400C408.844 320 416 312.844 416 304S408.844 288 400 288ZM304 288H208C199.156 288 192 295.156 192 304S199.156 320 208 320H304C312.844 320 320 312.844 320 304S312.844 288 304 288Z"/></svg>

<svg xmlns="http://www.w3.org/2000/svg" viewBox="0 0 512 512"><!--! Font Awesome Pro 6.3.0 by @fontawesome - https://fontawesome.com License - https://fontawesome.com/license (Commercial License) Copyright 2023 Fonticons, Inc. --><path d="M447.1 0h-384c-35.25 0-64 28.75-64 63.1v287.1c0 35.25 28.75 63.1 64 63.1h96v83.1c0 9.838 11.03 15.55 19.12 9.7l124.9-93.7h144c35.25 0 64-28.75 64-63.1V63.1C511.1 28.75 483.2 0 447.1 0zM480 352c0 17.6-14.4 32-32 32h-144.1c-6.928 0-13.67 2.248-19.21 6.406L192 460v-60c0-8.838-7.164-16-16-16H64c-17.6 0-32-14.4-32-32V64c0-17.6 14.4-32 32-32h384c17.6 0 32 14.4 32 32V352zM432 224h-160C263.2 224 256 231.2 256 240S263.2 256 272 256h160C440.8 256 448 248.8 448 240S440.8 224 432 224zM224 240C224 231.2 216.8 224 208 224h-128C71.16 224 64 231.2 64 240S71.16 256 80 256h128C216.8 256 224 248.8 224 240zM144 288h-32C103.2 288 96 295.2 96 304S103.2 320 112 320h32C152.8 320 160 312.8 160 304S152.8 288 144 288zM400 288h-32C359.2 288 352 295.2 352 304s7.156 16 16 16h32c8.844 0 16-7.156 16-16S408.8 288 400 288zM304 288h-96C199.2 288 192 295.2 192 304S199.2 320 208 320h96c8.844 0 16-7.156 16-16S312.8 288 304 288z"/></svg>
